svg/u1f98a.svg

<svg viewBox="0 0 128 128" xmlns="http://www.w3.org/2000/svg">
  <path d="M45.83,104.96l32.52,4.5l39.84-24.35c0,0-4.93-11.83-7.46-17.88s-6.62-14.36-6.62-14.36 s2.23-6.07,3.24-13.37c1.17-8.49,0.14-10.65,0.14-10.65l-21.21-9.67c0,0-3.14,2.3-5.96,7.51s-3.8,7.32-3.8,7.32 s-7.18-0.56-10.42-0.56c-3.24,0-8.59,0.7-8.59,0.7s-5.07-9.29-7.74-12.53c-2.67-3.24-6.85-6.38-6.85-6.38s-18.86,9.39-19.71,16.14 s-0.05,11.5,0.52,14.45c0.56,2.96,2.25,7.18,2.25,7.18s-1.69,2.53-3.94,8.31s-4.79,12.81-6.62,15.77c-1.83,2.96-6.76,9.71-6.76,9.71 L45.83,104.96z" fill="#FF6011"/>
  <path d="M31.66,7.73c-2.02,0.56-4.41,5.16-6.57,12.76c-1.14,4.01-1.97,11.36-1.97,11.36s6.66-5.16,12.58-7.32 s13.42-3.66,13.42-3.66s-3.45-3.94-7.51-7.51C38.1,10.27,33.4,7.25,31.66,7.73z" fill="#575A5B"/>
  <path d="M100.36,8.48c-1.46-0.39-6.49,2.18-10.04,5.54s-6.95,7.98-6.95,7.98s7.13,0.28,13.61,3.57 c6.48,3.28,10.89,6.19,10.89,6.19s-0.14-6.74-1.6-12.58C104.77,13.17,102.8,9.14,100.36,8.48z" fill="#575A5B"/>
  <path d="M33.73,16.55c-0.66,0.38-4.1,7.11-3.85,17.18c0.19,7.51,1.69,13.51,2.06,13.51 c0.19,0,3.84-4.33,7.7-7.04c3.86-2.71,8.82-4.19,8.96-4.52c0.28-0.66-2.86-7.21-7.08-12.74S34.38,16.18,33.73,16.55z" fill="#FF9411"/>
  <path d="M86.1,36.45c-0.21-0.96,2.44-9.1,5.16-13.42c2.72-4.32,6.57-8.63,7.6-8.45 c1.03,0.19,5.07,9.67,3.75,18.3c-1.31,8.63-3,13.61-3.47,13.7c-0.26,0.05-3.04-3.25-6.48-5.91C89.8,38.45,86.18,36.83,86.1,36.45z" fill="#FF9411"/>
  <path d="M4.73,87.41c-0.15-0.74,3.85-1.41,6.57-2.72c2.72-1.31,8.35-3.85,16.99-2.82 c8.63,1.03,12.97,3.63,19.15,7.79c6.19,4.18,8.92,13.98,8.92,13.98l14.17,3c0,0,4.93-11.03,8.54-14.45 c3.03-2.88,11.2-9.36,21.68-10.32c10.23-0.94,14.36,1.31,17.83,2.63c2.4,0.91,4.5,1.41,4.79,2.16c0.28,0.75-4.13,3.75-4.13,3.75 s4.13,0.66,4.22,1.22c0.14,0.84-3.1,2.72-5.35,4.13s-18,9.47-23.84,12.48c-3.1,1.6-15.49,6.19-17.36,6.1 c-1.88-0.09-23.84-1.13-25.34-1.22c-1.5-0.09-16.24-5.26-23.84-8.17c-8.43-3.22-23.54-10.88-23.18-12.29 c0.19-0.75,5.35-1.31,5.35-1.31S4.91,88.35,4.73,87.41z" fill="#DFDFDF"/>
  <path d="M64.13,119.7c16.97,0.83,17.64-13.42,15.86-19.52c-1.78-6.1-2.53-6.1-2.53-6.1s-3.61,4.18-5.44,9.39 c-0.57,1.63-15.67,0.19-15.67,0.19s-0.75-3-2.16-5.73c-0.93-1.8-2.35-3.71-2.35-3.71s-2.53,3.43-3,8.02 C48.37,106.84,46.87,118.85,64.13,119.7z" fill="#FEE9C9"/>
  <path d="M52.59,110.45c-0.75,0.86,1.27,3.03,2.25,4.01c0.99,0.99,3.1,2.35,4.36,2.46 c1.55,0.14,5.28-3.1,5.28-3.1s3.82,3.54,5.94,3.47c2.11-0.07,4.69-3.05,5.61-4.04c0.56-0.61,1.67-1.75,0.77-2.82 c-0.77-0.92-1.94-0.04-2.89,0.84c-1.96,1.84-3.4,3.19-3.66,3.24c-0.42,0.07-5.49-4.58-5.49-4.58s-4.86,3.66-5.77,3.66 c-0.55,0-2.24-1.53-3.59-2.82C54.53,109.97,53.58,109.32,52.59,110.45z" fill="#4A4A4C"/>
  <path d="M64.7,99.82c-3.66,0.03-9.64,0.21-9.29,4.22c0.35,4.01,2.32,7.67,9.57,7.6s9.08-3.87,9.22-7.67 C74.28,101.72,73.43,99.75,64.7,99.82z" fill="#2D2A25"/>
  <path d="M45.9,96.94c-0.33,0.99-2.11,1.27-3.87,0.35c-1.76-0.92-5-2.82-7.74-4.08 c-2.3-1.06-4.86-1.69-4.65-3.17c0.21-1.48,3.17-0.42,5.63,0.35c2.46,0.77,7.53,2.89,8.59,3.52C44.92,94.54,46.4,95.46,45.9,96.94z" fill="#FFFFFF"/>
  <path d="M36.19,98.06c-2.76-0.87-7.62-2.61-7.88-0.84c-0.21,1.41,4.01,2.4,6.76,3.94 c2.39,1.34,6.65,3.64,7.46,1.06C43.23,99.96,38.86,98.91,36.19,98.06z" fill="#FFFFFF"/>
  <path d="M83.98,97.15c0.78,1.76,3.4-0.01,6.05-1.34c3.1-1.55,7.18-3.31,8.38-3.66 c1.2-0.35,2.11-0.84,1.9-1.62c-0.21-0.77-2.1-0.86-3.52-0.56c-2.04,0.42-5.35,1.13-8.24,2.6C86.74,93.5,82.93,94.75,83.98,97.15z" fill="#FFFFFF"/>
  <path d="M87.15,102.64c0.62,2.07,5.56-0.49,7.95-1.48s7.11-2.53,6.69-3.8c-0.48-1.43-6.48-0.02-8.17,0.42 C91.23,98.41,86.31,99.82,87.15,102.64z" fill="#FFFFFF"/>
  <path d="M85.67,73.71c-0.99,2.96-3.71,6.22-6.83,5.56s-4.36-3.87-3.73-8.45c0.59-4.27,4.06-5.94,7.18-5.28 S87.04,69.61,85.67,73.71z" fill="#2D2A25"/>
  <path d="M53.6,71.25c0.6,3.06,0.27,6.66-2.84,7.67c-3.11,1-6.82-0.39-8.03-4.85 c-1.34-4.94,0.65-7.19,3.76-8.19C49.61,64.87,52.76,67.01,53.6,71.25z" fill="#2D2A25"/>
  <path d="M48.02,67.51c0.86,0.86,0.35,2.39-0.49,3.17c-0.51,0.47-2.11,1.55-3.17,0.14 c-0.78-1.04-0.21-2.18,0.7-3.1C45.97,66.81,47.24,66.74,48.02,67.51z" fill="#DFDFDF"/>
  <path d="M80.04,67.72c0.98,0.71,0.64,2.46-0.07,3.36c-0.43,0.55-1.93,2.17-3.1,0.86 c-0.63-0.71-0.56-2.33,0.19-3.38C77.82,67.52,79.15,67.09,80.04,67.72z" fill="#DFDFDF"/>
</svg>

<svg viewBox="0 0 128 128" xmlns="http://www.w3.org/2000/svg">
  <defs/>
  <path d="M45.83,104.96 L78.35,109.46 L118.19,85.11 C118.19,85.11 113.26,73.28 110.73,67.23 C108.2,61.18 104.11,52.87 104.11,52.87 C104.11,52.87 106.34,46.8 107.35,39.5 C108.52,31.01 107.49,28.85 107.49,28.85 L86.28,19.18 C86.28,19.18 83.14,21.48 80.32,26.69 C77.5,31.9 76.52,34.01 76.52,34.01 C76.52,34.01 69.34,33.45 66.1,33.45 C62.86,33.45 57.51,34.15 57.51,34.15 C57.51,34.15 52.44,24.86 49.77,21.62 C47.1,18.38 42.92,15.24 42.92,15.24 C42.92,15.24 24.06,24.63 23.21,31.38 C22.36,38.13 23.16,42.88 23.73,45.83 C24.29,48.79 25.98,53.01 25.98,53.01 C25.98,53.01 24.29,55.54 22.04,61.32 C19.79,67.1 17.25,74.13 15.42,77.09 C13.59,80.05 8.66,86.8 8.66,86.8 L45.83,104.96 Z" fill="#FF6011"/>
  <path d="M31.66,7.73 C29.64,8.29 27.25,12.89 25.09,20.49 C23.95,24.5 23.12,31.85 23.12,31.85 C23.12,31.85 29.78,26.69 35.7,24.53 C41.62,22.37 49.12,20.87 49.12,20.87 C49.12,20.87 45.67,16.93 41.61,13.36 C38.1,10.27 33.4,7.25 31.66,7.73 Z" fill="#575A5B"/>
  <path d="M100.36,8.48 C98.9,8.09 93.87,10.66 90.32,14.02 C86.77,17.38 83.37,22 83.37,22 C83.37,22 90.5,22.28 96.98,25.57 C103.46,28.85 107.87,31.76 107.87,31.76 C107.87,31.76 107.73,25.02 106.27,19.18 C104.77,13.17 102.8,9.14 100.36,8.48 Z" fill="#575A5B"/>
  <path d="M33.73,16.55 C33.07,16.93 29.63,23.66 29.88,33.73 C30.07,41.24 31.57,47.24 31.94,47.24 C32.13,47.24 35.78,42.91 39.64,40.2 C43.5,37.49 48.46,36.01 48.6,35.68 C48.88,35.02 45.74,28.47 41.52,22.94 C37.3,17.41 34.38,16.18 33.73,16.55 Z" fill="#FF9411"/>
  <path d="M86.1,36.45 C85.89,35.49 88.54,27.35 91.26,23.03 C93.98,18.71 97.83,14.4 98.86,14.58 C99.89,14.77 103.93,24.25 102.61,32.88 C101.3,41.51 99.61,46.49 99.14,46.58 C98.88,46.63 96.1,43.33 92.66,40.67 C89.8,38.45 86.18,36.83 86.1,36.45 Z" fill="#FF9411"/>
  <path d="M4.73,87.41 C4.58,86.67 8.58,86 11.3,84.69 C14.02,83.38 19.65,80.84 28.29,81.87 C36.92,82.9 41.26,85.5 47.44,89.66 C53.63,93.84 56.36,103.64 56.36,103.64 L70.53,106.64 C70.53,106.64 75.46,95.61 79.07,92.19 C82.1,89.31 90.27,82.83 100.75,81.87 C110.98,80.93 115.11,83.18 118.58,84.5 C120.98,85.41 123.08,85.91 123.37,86.66 C123.65,87.41 119.24,90.41 119.24,90.41 C119.24,90.41 123.37,91.07 123.46,91.63 C123.6,92.47 120.36,94.35 118.11,95.76 C115.86,97.17 100.11,105.23 94.27,108.24 C91.17,109.84 78.78,114.43 76.91,114.34 C75.03,114.25 53.07,113.21 51.57,113.12 C50.07,113.03 35.33,107.86 27.73,104.95 C19.3,101.73 4.19,94.07 4.55,92.66 C4.74,91.91 9.9,91.35 9.9,91.35 C9.9,91.35 4.91,88.35 4.73,87.41 Z" fill="#DFDFDF"/>
  <path d="M64.13,119.7 C81.1,120.53 81.77,106.28 79.99,100.18 C78.21,94.08 77.46,94.08 77.46,94.08 C77.46,94.08 73.85,98.26 72.02,103.47 C71.45,105.1 56.35,103.66 56.35,103.66 C56.35,103.66 55.6,100.66 54.19,97.93 C53.26,96.13 51.84,94.22 51.84,94.22 C51.84,94.22 49.31,97.65 48.84,102.24 C48.37,106.84 46.87,118.85 64.13,119.7 Z" fill="#FEE9C9"/>
  <path d="M52.59,110.45 C51.84,111.31 53.86,113.48 54.84,114.46 C55.83,115.45 57.94,116.81 59.2,116.92 C60.75,117.06 64.48,113.82 64.48,113.82 C64.48,113.82 68.3,117.36 70.42,117.29 C72.53,117.22 75.11,114.24 76.03,113.25 C76.59,112.64 77.7,111.5 76.8,110.43 C76.03,109.51 74.86,110.39 73.91,111.27 C71.95,113.11 70.51,114.46 70.25,114.51 C69.83,114.58 64.76,109.93 64.76,109.93 C64.76,109.93 59.9,113.59 58.99,113.59 C58.44,113.59 56.75,112.06 55.4,110.77 C54.53,109.97 53.58,109.32 52.59,110.45 Z" fill="#4A4A4C"/>
  <path d="M64.7,99.82 C61.04,99.85 55.06,100.03 55.41,104.04 C55.76,108.05 57.73,111.71 64.98,111.64 C72.23,111.57 74.06,107.77 74.2,103.97 C74.28,101.72 73.43,99.75 64.7,99.82 Z" fill="#2D2A25"/>
  <path d="M45.9,96.94 C45.57,97.93 43.79,98.21 42.03,97.29 C40.27,96.37 37.03,94.47 34.29,93.21 C31.99,92.15 29.43,91.52 29.64,90.04 C29.85,88.56 32.81,89.62 35.27,90.39 C37.73,91.16 42.8,93.28 43.86,93.91 C44.92,94.54 46.4,95.46 45.9,96.94 Z" fill="#FFFFFF"/>
  <path d="M36.19,98.06 C33.43,97.19 28.57,95.45 28.31,97.22 C28.1,98.63 32.32,99.62 35.07,101.16 C37.46,102.5 41.72,104.8 42.53,102.22 C43.23,99.96 38.86,98.91 36.19,98.06 Z" fill="#FFFFFF"/>
  <path d="M83.98,97.15 C84.76,98.91 87.38,97.14 90.03,95.81 C93.13,94.26 97.21,92.5 98.41,92.15 C99.61,91.8 100.52,91.31 100.31,90.53 C100.1,89.76 98.21,89.67 96.79,89.97 C94.75,90.39 91.44,91.1 88.55,92.57 C86.74,93.5 82.93,94.75 83.98,97.15 Z" fill="#FFFFFF"/>
  <path d="M87.15,102.64 C87.77,104.71 92.71,102.15 95.1,101.16 C97.49,100.17 102.21,98.63 101.79,97.36 C101.31,95.93 95.31,97.34 93.62,97.78 C91.23,98.41 86.31,99.82 87.15,102.64 Z" fill="#FFFFFF"/>
  <path d="M85.67,73.71 C84.68,76.67 81.96,79.93 78.84,79.27 C75.72,78.61 74.48,75.4 75.11,70.82 C75.7,66.55 79.17,64.88 82.29,65.54 C85.41,66.2 87.04,69.61 85.67,73.71 Z" fill="#2D2A25"/>
  <path d="M53.6,71.25 C54.2,74.31 53.87,77.91 50.76,78.92 C47.65,79.92 43.94,78.53 42.73,74.07 C41.39,69.13 43.38,66.88 46.49,65.88 C49.61,64.87 52.76,67.01 53.6,71.25 Z" fill="#2D2A25"/>
  <path d="M48.02,67.51 C48.88,68.37 48.37,69.9 47.53,70.68 C47.02,71.15 45.42,72.23 44.36,70.82 C43.58,69.78 44.15,68.64 45.06,67.72 C45.97,66.81 47.24,66.74 48.02,67.51 Z" fill="#DFDFDF"/>
  <path d="M80.04,67.72 C81.02,68.43 80.68,70.18 79.97,71.08 C79.54,71.63 78.04,73.25 76.87,71.94 C76.24,71.23 76.31,69.61 77.06,68.56 C77.82,67.52 79.15,67.09 80.04,67.72 Z" fill="#DFDFDF"/>
</svg>
